src/img/svg-with-layers/play.svg

<?xml version="1.0" encoding="UTF-8" standalone="no"?>
<svg
   xmlns:dc="http://purl.org/dc/elements/1.1/"
   xmlns:cc="http://creativecommons.org/ns#"
   xmlns:rdf="http://www.w3.org/1999/02/22-rdf-syntax-ns#"
   xmlns:svg="http://www.w3.org/2000/svg"
   xmlns="http://www.w3.org/2000/svg"
   xmlns:sodipodi="http://sodipodi.sourceforge.net/DTD/sodipodi-0.dtd"
   xmlns:inkscape="http://www.inkscape.org/namespaces/inkscape"
   width="1em"
   height="1em"
   viewBox="0 0 16 16"
   class="bi bi-arrow-right-square-fill"
   fill="currentColor"
   version="1.1"
   id="svg4"
   sodipodi:docname="play.svg"
   inkscape:version="1.0.1 (0767f8302a, 2020-10-17)">
  <metadata
     id="metadata10">
    <rdf:RDF>
      <cc:Work
         rdf:about="">
        <dc:format>image/svg+xml</dc:format>
        <dc:type
           rdf:resource="http://purl.org/dc/dcmitype/StillImage" />
        <dc:title />
      </cc:Work>
    </rdf:RDF>
  </metadata>
  <defs
     id="defs8" />
  <sodipodi:namedview
     pagecolor="#ffffff"
     bordercolor="#666666"
     borderopacity="1"
     objecttolerance="10"
     gridtolerance="10"
     guidetolerance="10"
     inkscape:pageopacity="0"
     inkscape:pageshadow="2"
     inkscape:window-width="1856"
     inkscape:window-height="1016"
     id="namedview6"
     showgrid="false"
     inkscape:pagecheckerboard="true"
     borderlayer="false"
     inkscape:zoom="49.772859"
     inkscape:cx="8.6900431"
     inkscape:cy="8"
     inkscape:window-x="1984"
     inkscape:window-y="581"
     inkscape:window-maximized="1"
     inkscape:current-layer="svg4"
     inkscape:document-rotation="0"
     showguides="true"
     inkscape:guide-bbox="true" />
  <path
     style="fill:#000000;fill-opacity:0.99973273;stroke-width:4.47851;stroke-linecap:round"
     d="m 0.19921875,15.121094 c 0,0.376644 0.303043,0.679687 0.679687,0.679687 H 15.121094 c 0.376644,0 0.679687,-0.303043 0.679687,-0.679687 V 0.87890575 c 0,-0.376644 -0.303043,-0.679687 -0.679687,-0.679687 H 0.87890575 c -0.376644,0 -0.679687,0.303043 -0.679687,0.679687 z"
     id="path1011" />
  <path
     id="rect893-5-5"
     style="opacity:1;fill:#ededed;fill-opacity:1;stroke-width:3.80307;stroke-linecap:round"
     d="m 5.4863281,3.5 c -0.011748,0 -0.021668,0.00505 -0.033203,0.00586 -0.019392,0.00199 -0.037617,0.00742 -0.056641,0.011719 -0.049931,0.00961 -0.095503,0.025292 -0.1386719,0.048828 -0.1171411,0.063865 -0.2008186,0.1701259 -0.234375,0.3027344 -0.00587,0.019486 -0.00837,0.038744 -0.011719,0.058594 C 5.0092047,3.9478598 5,3.9654998 5,3.9863281 v 8.0273439 c 0,0.02083 0.0092,0.03847 0.011719,0.05859 0.00335,0.01985 0.00585,0.03911 0.011719,0.05859 0.045923,0.181478 0.1876258,0.315874 0.3730469,0.351563 0.01905,0.0043 0.037221,0.0078 0.056641,0.0098 0.011667,8.29e-4 0.021318,0.0078 0.033203,0.0078 h 0.027344 c 0.022966,0 0.042351,-0.01062 0.064453,-0.01367 0.023245,-0.0036 0.045608,-0.0066 0.068359,-0.01367 0.048736,-0.01406 0.091732,-0.03496 0.1328125,-0.0625 0.00499,-0.0035 0.010723,-0.0041 0.015625,-0.0078 l 0.037109,-0.0293 c 0.00856,-0.0076 0.019336,-0.01138 0.027344,-0.01953 L 11.017578,8.4863281 C 11.173732,8.3692549 11.236009,8.1786915 11.199219,8 11.236009,7.8213088 11.173732,7.6287921 11.017578,7.5117188 L 5.859375,3.6464844 c -0.00801,-0.00815 -0.018779,-0.01196 -0.027344,-0.019531 l -0.037109,-0.029297 c -0.00488,-0.00366 -0.010656,-0.00436 -0.015625,-0.00781 -0.039436,-0.026437 -0.080416,-0.046482 -0.1269531,-0.060547 -0.02736,-0.00893 -0.053958,-0.01366 -0.082031,-0.017578 C 5.5508073,3.5093608 5.5338334,3.5 5.5136719,3.5 Z"
     sodipodi:nodetypes="sccsccssccccsscccccccccccccccss" />
</svg>

<?xml version="1.0" encoding="UTF-8" standalone="no"?>
<svg
   xmlns:dc="http://purl.org/dc/elements/1.1/"
   xmlns:cc="http://creativecommons.org/ns#"
   xmlns:rdf="http://www.w3.org/1999/02/22-rdf-syntax-ns#"
   xmlns:svg="http://www.w3.org/2000/svg"
   xmlns="http://www.w3.org/2000/svg"
   xmlns:sodipodi="http://sodipodi.sourceforge.net/DTD/sodipodi-0.dtd"
   xmlns:inkscape="http://www.inkscape.org/namespaces/inkscape"
   width="1em"
   height="1em"
   viewBox="0 0 16 16"
   class="bi bi-arrow-right-square-fill"
   fill="currentColor"
   version="1.1"
   id="svg4"
   sodipodi:docname="play.svg"
   inkscape:version="1.0.1 (0767f8302a, 2020-10-17)">
  <metadata
     id="metadata10">
    <rdf:RDF>
      <cc:Work
         rdf:about="">
        <dc:format>image/svg+xml</dc:format>
        <dc:type
           rdf:resource="http://purl.org/dc/dcmitype/StillImage" />
        <dc:title></dc:title>
      </cc:Work>
    </rdf:RDF>
  </metadata>
  <defs
     id="defs8" />
  <sodipodi:namedview
     pagecolor="#ffffff"
     bordercolor="#666666"
     borderopacity="1"
     objecttolerance="10"
     gridtolerance="10"
     guidetolerance="10"
     inkscape:pageopacity="0"
     inkscape:pageshadow="2"
     inkscape:window-width="1856"
     inkscape:window-height="1016"
     id="namedview6"
     showgrid="false"
     inkscape:pagecheckerboard="true"
     borderlayer="false"
     inkscape:zoom="51.931822"
     inkscape:cx="8.6900431"
     inkscape:cy="8"
     inkscape:window-x="64"
     inkscape:window-y="27"
     inkscape:window-maximized="1"
     inkscape:current-layer="svg4"
     inkscape:document-rotation="0"
     showguides="true"
     inkscape:guide-bbox="true" />
  <path
     style="fill:#000000;fill-opacity:0.99973273;stroke-width:4.47851;stroke-linecap:round"
     d="m 0.19921875,15.121094 c 0,0.376644 0.303043,0.679687 0.679687,0.679687 H 15.121094 c 0.376644,0 0.679687,-0.303043 0.679687,-0.679687 V 0.87890575 c 0,-0.376644 -0.303043,-0.679687 -0.679687,-0.679687 H 0.87890575 c -0.376644,0 -0.679687,0.303043 -0.679687,0.679687 z"
     id="path1011" />
  <path
     id="rect893-5-5"
     style="opacity:1;fill:#ededed;fill-opacity:1;stroke-width:3.80307;stroke-linecap:round"
     d="M 5.4863281 3.5 C 5.4745804 3.5 5.4646596 3.5050491 5.453125 3.5058594 C 5.4337333 3.5078486 5.4155078 3.5132787 5.3964844 3.5175781 C 5.3465535 3.5271885 5.3009813 3.5428706 5.2578125 3.5664062 C 5.1406714 3.6302715 5.0569939 3.7365321 5.0234375 3.8691406 C 5.0175707 3.8886262 5.0150641 3.9078848 5.0117188 3.9277344 C 5.0092047 3.9478598 5 3.9654998 5 3.9863281 L 5 12.013672 C 5 12.0345 5.0092047 12.05214 5.0117188 12.072266 C 5.0150641 12.092115 5.0175707 12.111374 5.0234375 12.130859 C 5.0693601 12.312337 5.2110633 12.446733 5.3964844 12.482422 C 5.4155345 12.486727 5.4337057 12.490199 5.453125 12.492188 C 5.4647919 12.493017 5.4744429 12.5 5.4863281 12.5 L 5.5136719 12.5 C 5.536638 12.5 5.5560229 12.489375 5.578125 12.486328 C 5.6013705 12.482699 5.6237332 12.479735 5.6464844 12.472656 C 5.6952201 12.458593 5.7382163 12.437696 5.7792969 12.410156 C 5.7842871 12.406693 5.79002 12.406019 5.7949219 12.402344 L 5.8320312 12.373047 C 5.8405956 12.365475 5.8513673 12.361668 5.859375 12.353516 L 11.017578 8.4863281 C 11.173732 8.3692549 11.236009 8.1786915 11.199219 8 C 11.236009 7.8213088 11.173732 7.6287921 11.017578 7.5117188 L 5.859375 3.6464844 C 5.8513673 3.6383323 5.8405956 3.6345248 5.8320312 3.6269531 L 5.7949219 3.5976562 C 5.7900405 3.5939966 5.7842658 3.5932938 5.7792969 3.5898438 C 5.7398614 3.5634066 5.6988806 3.5433617 5.6523438 3.5292969 C 5.6249842 3.5203623 5.5983863 3.5156364 5.5703125 3.5117188 C 5.5508073 3.5093608 5.5338334 3.5 5.5136719 3.5 L 5.4863281 3.5 z M 6 5.0019531 L 10 8 L 6 10.998047 L 6 5.0019531 z " />
</svg>
